other/shelf.svg

<?xml version="1.0" encoding="UTF-8" standalone="no"?>
<!-- Generator: Adobe Illustrator 26.0.3, SVG Export Plug-In . SVG Version: 6.00 Build 0)  -->

<svg
   version="1.1"
   id="Layer_1"
   x="0px"
   y="0px"
   viewBox="0 0 48 48"
   style="enable-background:new 0 0 48 48;"
   xml:space="preserve"
   sodipodi:docname="shelf.svg"
   inkscape:version="1.2.2 (b0a8486541, 2022-12-01)"
   xmlns:inkscape="http://www.inkscape.org/namespaces/inkscape"
   xmlns:sodipodi="http://sodipodi.sourceforge.net/DTD/sodipodi-0.dtd"
   xmlns="http://www.w3.org/2000/svg"
   xmlns:svg="http://www.w3.org/2000/svg"><defs
   id="defs11737" /><sodipodi:namedview
   id="namedview11735"
   pagecolor="#ffffff"
   bordercolor="#000000"
   borderopacity="0.25"
   inkscape:showpageshadow="2"
   inkscape:pageopacity="0.0"
   inkscape:pagecheckerboard="0"
   inkscape:deskcolor="#d1d1d1"
   showgrid="false"
   inkscape:zoom="11.313709"
   inkscape:cx="2.7400387"
   inkscape:cy="13.921164"
   inkscape:window-width="1912"
   inkscape:window-height="2084"
   inkscape:window-x="128"
   inkscape:window-y="248"
   inkscape:window-maximized="0"
   inkscape:current-layer="Layer_1" />
<style
   type="text/css"
   id="style11728">
	.st0{fill:none;stroke:#FFFFFF;stroke-linecap:round;stroke-linejoin:round;}
</style>


<g
   id="g12555"
   style="stroke:#ffffff;stroke-opacity:1"><path
     class="st0"
     d="M12.7,4.5h-2.3c-1.1,0-2,0.9-2,2v35c0,1.1,0.9,2,2,2h2.3"
     id="path11730"
     style="stroke:#ffffff;stroke-opacity:1" /><path
     class="st0"
     d="M12.7,4.5v39h24.9c1.1,0,2-0.9,2-2v-35c0-1.1-0.9-2-2-2H12.7z"
     id="path11732"
     style="stroke:#ffffff;stroke-opacity:1" /><g
     id="g12321"
     style="stroke:#ffffff;stroke-opacity:1"><path
       style="fill:none;stroke:#ffffff;stroke-linecap:round;stroke-linejoin:round;stroke-opacity:1"
       d="M 31.065879,5.0895163 V 16.326111 l 2.51171,-2.511709"
       id="path12285" /><path
       style="fill:none;stroke:#ffffff;stroke-linecap:round;stroke-linejoin:round;stroke-opacity:1"
       d="M 36.115989,5.1089112 V 16.345506 l -2.51171,-2.511709"
       id="path12285-7" /></g><path
     id="path12528"
     style="fill:none;stroke:#ffffff;stroke-linecap:round;stroke-linejoin:round;stroke-opacity:1"
     d="M 39.408543 39.361991 C 38.578618 39.504731 37.615328 39.313575 36.713925 38.402847 C 33.385108 35.03959 30.617112 27.183562 32.69204 26.491009 C 33.351252 26.306415 33.938621 27.17171 34.186583 28.77823 C 34.622414 31.601928 34.2699 36.716853 33.618345 40.091723 C 33.446025 40.984288 33.266161 42.053933 32.618768 43.027247 C 32.563582 43.110216 32.506046 43.192646 32.446641 43.274486 " /><path
     id="path12540"
     style="fill:none;stroke:#ffffff;stroke-linecap:round;stroke-linejoin:round;stroke-opacity:1"
     d="M 32.576807 43.457081 C 34.584399 42.298025 37.123321 40.832092 39.446118 39.490912 " /></g></svg>

<?xml version="1.0" encoding="UTF-8"?><svg id="b" xmlns="http://www.w3.org/2000/svg" viewBox="0 0 48 48"><defs><style>.k{fill:none;stroke:#fff;stroke-linecap:round;stroke-linejoin:round;}</style></defs><g id="c"><path id="d" class="k" d="m12.7,4.5h-2.3c-1.1,0-2,.9-2,2v35c0,1.1.9,2,2,2h2.3"/><path id="e" class="k" d="m12.7,4.5v39h24.9c1.1,0,2-.9,2-2V6.5c0-1.1-.9-2-2-2H12.7Z"/><g id="f"><path id="g" class="k" d="m31.0659,5.0895v11.2366l2.5117-2.5117"/><path id="h" class="k" d="m36.116,5.1089v11.2366l-2.5117-2.5117"/></g><path id="i" class="k" d="m39.4085,39.362c-.8299.1427-1.7932-.0484-2.6946-.9591-3.3288-3.3633-6.0968-11.2193-4.0219-11.9118.6592-.1846,1.2466.6807,1.4945,2.2872.4358,2.8237.0833,7.9386-.5682,11.3135-.1723.8926-.3522,1.9622-.9996,2.9355-.0552.083-.1127.1654-.1721.2472"/><path id="j" class="k" d="m32.5768,43.4571c2.0076-1.1591,4.5465-2.625,6.8693-3.9662"/></g></svg>
